img/Header/telegram.svg

<svg width="30" height="30" viewBox="0 0 30 30" fill="none" xmlns="http://www.w3.org/2000/svg">
<g clip-path="url(#clip0_212_92)">
<path d="M29.4126 2.45794C28.9299 2.01574 28.244 1.86837 27.6222 2.07328L1.24402 10.7686C0.525131 11.0056 0.0376305 11.6473 0.00206411 12.4034C-0.0334437 13.1594 0.391654 13.8441 1.08505 14.1476L7.60859 17.0018C7.6404 17.1494 9.51312 25.8352 9.57681 26.1304C9.65855 26.5096 9.85103 26.8474 10.2588 26.9513C10.6712 27.0564 10.9626 26.831 11.2703 26.6006C11.4416 26.4724 16.1114 22.9757 16.1114 22.9757L21.7709 27.6069C22.1005 27.8767 22.5034 28.0175 22.9142 28.0175C23.1098 28.0174 23.3073 27.9855 23.4993 27.9204C24.095 27.7184 24.5366 27.2323 24.6805 26.62L29.952 4.20779C30.1018 3.57058 29.8952 2.90015 29.4126 2.45794ZM11.692 18.6373C11.6888 18.6449 11.6857 18.6536 11.6827 18.6639L10.5914 22.4764L9.37361 16.8283L17.7477 12.1757L11.8929 18.2974C11.8007 18.3939 11.7328 18.5105 11.692 18.6373ZM12.0384 23.8243L12.534 22.0926L13.0081 20.4362L14.7068 21.8263L12.0384 23.8243ZM28.2368 3.80431L22.9654 26.2165C22.9628 26.2277 22.9593 26.243 22.9335 26.2518C22.9079 26.2604 22.8955 26.2505 22.8867 26.2433L16.6939 21.1756C16.6937 21.1755 16.6936 21.1753 16.6934 21.1752L13.8242 18.8272L23.0423 9.18867C23.3434 8.87384 23.3691 8.38628 23.1029 8.04146C22.8366 7.69658 22.3584 7.59808 21.9777 7.80972L8.32824 15.3935L1.79134 12.5333C1.77142 12.5246 1.76046 12.5198 1.76204 12.4861C1.76363 12.4525 1.77499 12.4487 1.79562 12.4419L28.1738 3.7466C28.1866 3.74244 28.201 3.73763 28.2222 3.75697C28.2434 3.77642 28.2399 3.79119 28.2368 3.80431Z" fill="url(#paint0_linear_212_92)"/>
</g>
<defs>
<linearGradient id="paint0_linear_212_92" x1="-2.8754" y1="-9.17546" x2="32.089" y2="-7.55727" gradientUnits="userSpaceOnUse">
<stop stop-color="#00B292"/>
<stop offset="0.290505" stop-color="#2DFFD9"/>
<stop offset="0.635914" stop-color="#54FFE0"/>
<stop offset="0.978018" stop-color="#03776F"/>
</linearGradient>
<clipPath id="clip0_212_92">
<rect width="30" height="30" fill="white"/>
</clipPath>
</defs>
</svg>

<svg width="30" height="30" fill="none" xmlns="http://www.w3.org/2000/svg"><g clip-path="url(#clip0_212_92)"><path d="M29.413 2.458a1.813 1.813 0 00-1.79-.385L1.243 10.77a1.798 1.798 0 00-1.242 1.634c-.035.756.39 1.441 1.083 1.745l6.524 2.854 1.968 9.128c.082.38.274.717.682.821.412.105.704-.12 1.011-.35l4.841-3.625 5.66 4.63a1.8 1.8 0 001.728.314 1.8 1.8 0 001.181-1.3l5.272-22.412a1.813 1.813 0 00-.54-1.75zm-17.721 16.18a.244.244 0 00-.01.026l-1.09 3.812-1.218-5.648 8.374-4.652-5.855 6.121a.882.882 0 00-.201.34zm.346 5.186l.496-1.731.474-1.657 1.699 1.39-2.669 1.998zm16.199-20.02l-5.272 22.413c-.002.01-.006.026-.032.035-.025.008-.038-.002-.046-.009l-6.193-5.067-2.87-2.349 9.218-9.638a.88.88 0 00-1.064-1.38l-13.65 7.584-6.537-2.86c-.02-.008-.03-.013-.029-.047.002-.034.013-.037.034-.044l26.378-8.695c.013-.005.027-.01.048.01s.018.034.015.047z" fill="url(#paint0_linear_212_92)"/></g><defs><linearGradient id="paint0_linear_212_92" x1="-2.875" y1="-9.175" x2="32.089" y2="-7.557" gradientUnits="userSpaceOnUse"><stop stop-color="#00B292"/><stop offset=".291" stop-color="#2DFFD9"/><stop offset=".636" stop-color="#54FFE0"/><stop offset=".978" stop-color="#03776F"/></linearGradient><clipPath id="clip0_212_92"><path fill="#fff" d="M0 0h30v30H0z"/></clipPath></defs></svg>
